lib/preview/nrk-logo-preview-nrk-troms-title-right.svg

<svg width="85" height="24" viewBox="0 0 85 24" fill="none" xmlns="http://www.w3.org/2000/svg">
<path d="M0 17.9663V5.96737H4V17.9663H0ZM9.24381 7.87706L11.5081 17.9663H7.19917L4.49549 5.96737H6.91217C7.46635 5.96018 8.00406 6.15553 8.4245 6.51667C8.84562 6.86266 9.08495 7.34298 9.24381 7.87706ZM12 17.9663V5.96737H16V17.9663H12ZM19.0105 10.5304C18.5862 10.5345 18.1687 10.4235 17.8025 10.2092C17.4412 10.0004 17.1411 9.70024 16.9323 9.33888C16.7178 8.97261 16.6068 8.55504 16.611 8.1306C16.6061 7.70874 16.7172 7.29366 16.9323 6.9307C17.1433 6.57327 17.4431 6.27637 17.8025 6.0688C18.1689 5.85478 18.5862 5.74379 19.0105 5.74766C19.4322 5.74312 19.8471 5.85421 20.2102 6.0688C20.566 6.27819 20.8626 6.57484 21.072 6.9307C21.2868 7.29376 21.3979 7.70877 21.3933 8.1306C21.3973 8.555 21.2863 8.9725 21.072 9.33888C20.8649 9.69865 20.5679 9.99856 20.2102 10.2092C19.8471 10.4243 19.4324 10.5354 19.0105 10.5304ZM22 17.9663V5.96737H26V17.9663H22ZM30.9737 12.5245C30.9848 12.5362 31.0693 12.6742 31.2272 12.9385C31.3851 13.2029 31.5906 13.541 31.8439 13.9526C32.0974 14.364 32.3649 14.8005 32.6463 15.2623C32.9278 15.724 33.1926 16.1606 33.4408 16.5721C33.6881 16.9835 33.9697 17.4482 34.2857 17.9663H29.9598C29.6893 17.5269 29.4441 17.1297 29.2245 16.7748C29.0048 16.4199 28.7713 16.0369 28.5238 15.6256C28.2758 15.2148 28.0306 14.8148 27.7882 14.4257C27.5458 14.0367 27.3375 13.6959 27.1633 13.4033C26.9883 13.1106 26.8671 12.9134 26.7997 12.8118C26.6325 12.5597 26.5336 12.2686 26.5127 11.9668C26.5294 11.6772 26.6226 11.3973 26.7828 11.1554C26.8503 11.0427 26.9743 10.8427 27.1545 10.5554C27.3348 10.2681 27.546 9.92733 27.7882 9.533C28.0304 9.13867 28.2756 8.73588 28.5238 8.32465C28.772 7.91342 29.0055 7.52751 29.2245 7.16698C29.4445 6.80683 29.6897 6.40686 29.9598 5.96709H34.2857L30.9396 11.4258C30.8361 11.5878 30.7777 11.7746 30.7706 11.9668C30.7818 12.1686 30.8528 12.3626 30.9737 12.5245Z" fill="white"/>
<g clip-path="url(#clip0_5919_2893)">
<path d="M43.6363 7.45375V17.95H41.8644V7.45375H38V5.96875H47.4838V7.45375H43.6363ZM50.9431 9.28469C50.6281 9.36906 50.33 9.49844 50.0487 9.67281C49.7675 9.84719 49.5031 10.0581 49.2556 10.3056C49.2163 10.345 49.1769 10.39 49.1375 10.4322V9.175L47.4162 9.42812V17.95H49.1375V11.5741C49.2669 11.4841 49.3991 11.3997 49.5341 11.3266C49.7084 11.2309 49.8828 11.1494 50.0572 11.0819C50.2316 11.0144 50.4087 10.9553 50.5887 10.9047C50.7687 10.8541 50.9572 10.8175 51.1541 10.795C51.3509 10.7725 51.5562 10.7669 51.77 10.7781L51.9725 9.19187C51.6012 9.16937 51.2581 9.20031 50.9431 9.28469ZM60.8656 11.2253C61.2144 11.8834 61.3888 12.6569 61.3888 13.5456C61.3888 14.4794 61.2003 15.2894 60.8234 15.9756C60.4466 16.6619 59.9206 17.1906 59.2456 17.5619C58.5706 17.9331 57.7944 18.1187 56.9169 18.1187C56.0394 18.1187 55.3306 17.9444 54.6894 17.5956C54.0481 17.2469 53.5559 16.7378 53.2128 16.0684C52.8697 15.3991 52.6981 14.6031 52.6981 13.6806C52.6981 12.7581 52.8809 11.9594 53.2466 11.2844C53.6122 10.6094 54.1241 10.0862 54.7822 9.715C55.4403 9.34375 56.2081 9.15812 57.0856 9.15812C57.9631 9.15812 58.7253 9.33812 59.3722 9.69812C60.0191 10.0581 60.5169 10.5672 60.8656 11.2253ZM59.6 13.5794C59.6 13.1181 59.5494 12.6991 59.4481 12.3222C59.3469 11.9453 59.1922 11.6219 58.9841 11.3519C58.7759 11.0819 58.5172 10.8766 58.2078 10.7359C57.8984 10.5953 57.53 10.525 57.1025 10.525C56.5625 10.525 56.0984 10.6375 55.7103 10.8625C55.3222 11.0875 55.0212 11.425 54.8075 11.875C54.5938 12.325 54.4869 12.8931 54.4869 13.5794C54.4869 14.2656 54.5938 14.8619 54.8075 15.3344C55.0212 15.8069 55.3137 16.1613 55.685 16.3975C56.0562 16.6338 56.495 16.7519 57.0012 16.7519C57.5075 16.7519 57.9575 16.6366 58.3512 16.4059C58.745 16.1753 59.0516 15.8238 59.2709 15.3513C59.4903 14.8787 59.6 14.2881 59.6 13.5794ZM75.1419 9.5125C74.7369 9.27625 74.2362 9.15812 73.64 9.15812C73.1787 9.15812 72.7344 9.23406 72.3069 9.38594C71.8794 9.53781 71.4744 9.75437 71.0919 10.0356C70.8837 10.1875 70.6841 10.3591 70.4928 10.5419C70.2959 10.0947 70.0091 9.75437 69.6238 9.52937C69.2188 9.29312 68.7125 9.175 68.105 9.175C67.655 9.175 67.2134 9.25094 66.7803 9.40281C66.3472 9.55469 65.9394 9.76844 65.5569 10.0441C65.4359 10.1312 65.3178 10.2269 65.2025 10.3253V9.175L63.4812 9.42812V17.95H65.2025V11.5319C65.4078 11.3997 65.6187 11.2759 65.8353 11.1747C66.1109 11.0453 66.3894 10.9469 66.6706 10.8794C66.9519 10.8119 67.2219 10.7781 67.4806 10.7781C67.7731 10.7781 68.0178 10.8203 68.2147 10.9047C68.4116 10.9891 68.5775 11.1128 68.7125 11.2759C68.8475 11.4391 68.9459 11.6528 69.0078 11.9172C69.0697 12.1816 69.1006 12.4881 69.1006 12.8369V17.95H70.8219V12.4825C70.8219 12.1309 70.7994 11.8103 70.7572 11.5178C70.9569 11.3884 71.1566 11.2703 71.3619 11.1662C71.6319 11.0312 71.9075 10.93 72.1887 10.8625C72.47 10.795 72.7456 10.7613 73.0156 10.7613C73.2856 10.7613 73.5387 10.8034 73.7412 10.8878C73.9438 10.9722 74.1125 11.0959 74.2475 11.2591C74.3825 11.4222 74.4809 11.6359 74.5428 11.9003C74.6047 12.1647 74.6356 12.4713 74.6356 12.82V17.95H76.3569V12.4656C76.3569 11.7006 76.2556 11.0763 76.0531 10.5925C75.8506 10.1088 75.5469 9.74875 75.1419 9.5125ZM84.6341 14.7016C84.5384 14.4597 84.4062 14.2487 84.2375 14.0687C84.0687 13.8888 83.8719 13.7341 83.6469 13.6047C83.4219 13.4753 83.1856 13.3656 82.9381 13.2756C82.7581 13.2194 82.5809 13.1603 82.4066 13.0984C82.2322 13.0366 82.0578 12.9803 81.8834 12.9297C81.7091 12.8791 81.5403 12.8256 81.3772 12.7694C81.2141 12.7131 81.065 12.6513 80.93 12.5838C80.7837 12.505 80.6516 12.4206 80.5334 12.3306C80.4153 12.2406 80.3197 12.1337 80.2466 12.01C80.1734 11.8863 80.1369 11.7456 80.1369 11.5881C80.1369 11.4081 80.1763 11.2534 80.255 11.1241C80.3338 10.9947 80.4519 10.885 80.6094 10.795C80.7669 10.705 80.9553 10.6375 81.1747 10.5925C81.3941 10.5475 81.6444 10.525 81.9256 10.525C82.0494 10.525 82.1844 10.5306 82.3306 10.5419C82.4769 10.5531 82.6372 10.5728 82.8116 10.6009C82.9859 10.6291 83.1603 10.6656 83.3347 10.7106C83.5091 10.7556 83.6862 10.8063 83.8662 10.8625C84.0462 10.9187 84.2094 10.9806 84.3556 11.0481L84.4738 9.68125C84.26 9.59125 84.0491 9.5125 83.8409 9.445C83.6328 9.3775 83.4219 9.32125 83.2081 9.27625C82.9944 9.23125 82.7834 9.20031 82.5753 9.18344C82.3672 9.16656 82.1619 9.15812 81.9594 9.15812C81.4531 9.15812 80.9919 9.21156 80.5756 9.31844C80.1594 9.42531 79.7966 9.58281 79.4872 9.79094C79.1778 9.99906 78.9388 10.2634 78.77 10.5841C78.6012 10.9047 78.5169 11.2844 78.5169 11.7231C78.5169 12.0381 78.5619 12.3166 78.6519 12.5584C78.7419 12.8003 78.86 13.0056 79.0063 13.1744C79.1525 13.3431 79.3241 13.4922 79.5209 13.6216C79.7178 13.7509 79.9287 13.8606 80.1537 13.9506C80.2775 13.9956 80.4069 14.0406 80.5419 14.0856C80.6769 14.1306 80.8091 14.1728 80.9384 14.2122C81.0678 14.2516 81.1944 14.2909 81.3181 14.3303C81.4419 14.3697 81.5628 14.4091 81.6809 14.4484C81.7991 14.4878 81.9144 14.5244 82.0269 14.5581C82.1844 14.6144 82.3306 14.6791 82.4656 14.7522C82.6006 14.8253 82.7159 14.9041 82.8116 14.9884C82.9072 15.0728 82.9803 15.1712 83.0309 15.2837C83.0816 15.3962 83.1069 15.52 83.1069 15.655C83.1069 15.9362 83.0141 16.1584 82.8284 16.3216C82.6428 16.4847 82.4009 16.6 82.1028 16.6675C81.8047 16.735 81.4869 16.7688 81.1494 16.7688C80.9694 16.7688 80.7697 16.7547 80.5503 16.7266C80.3309 16.6984 80.1003 16.6591 79.8584 16.6084C79.6166 16.5578 79.3691 16.4959 79.1159 16.4228C78.8628 16.3497 78.6069 16.2681 78.3481 16.1781L78.4156 17.6125C78.7081 17.7138 78.9753 17.7953 79.2172 17.8572C79.4591 17.9191 79.6897 17.9725 79.9091 18.0175C80.1284 18.0625 80.3422 18.0906 80.5503 18.1019C80.7584 18.1131 80.9694 18.1187 81.1831 18.1187C81.6781 18.1187 82.145 18.0709 82.5838 17.9753C83.0225 17.8797 83.405 17.7306 83.7313 17.5281C84.0575 17.3256 84.3134 17.0612 84.4991 16.735C84.6847 16.4087 84.7775 16.0206 84.7775 15.5706C84.7775 15.2331 84.7297 14.9434 84.6341 14.7016Z" fill="white"/>
</g>
<defs>
<clipPath id="clip0_5919_2893">
<rect width="46.7775" height="12.15" fill="white" transform="translate(38 5.96875)"/>
</clipPath>
</defs>
</svg>

<svg xmlns="http://www.w3.org/2000/svg" viewBox="0 0 85 24"><path fill="#fff" d="M0 17.966V5.967h4v12H0ZM9.244 7.877l2.264 10.09H7.2l-2.704-12h2.417a2.276 2.276 0 0 1 1.513.55c.42.346.66.826.819 1.36ZM12 17.967v-12h4v12h-4Zm7.01-7.437a2.381 2.381 0 0 1-2.078-1.192 2.345 2.345 0 0 1-.321-1.207 2.301 2.301 0 0 1 .321-1.2 2.41 2.41 0 0 1 3.278-.862c.356.21.653.506.862.862.215.363.326.778.321 1.2a2.35 2.35 0 0 1-.321 1.208 2.4 2.4 0 0 1-.862.87 2.3 2.3 0 0 1-1.2.321ZM22 17.966V5.967h4v12h-4Zm8.974-5.442c.01.012.095.15.253.415.158.264.364.602.617 1.014a309.436 309.436 0 0 1 1.597 2.62c.247.41.529.875.845 1.393H29.96c-.27-.44-.516-.836-.736-1.191-.22-.355-.453-.738-.7-1.15-.248-.41-.493-.81-.736-1.2a60.12 60.12 0 0 1-.625-1.022 18.04 18.04 0 0 0-.363-.591 1.747 1.747 0 0 1-.287-.845c.016-.29.11-.57.27-.812.067-.112.191-.312.371-.6a182.106 182.106 0 0 0 1.37-2.23l.7-1.158.736-1.2h4.326l-3.346 5.459a1.079 1.079 0 0 0-.17.54c.012.203.083.397.204.559Z"/><g clip-path="url(#a)"><path fill="#fff" d="M43.636 7.454V17.95h-1.772V7.454H38V5.969h9.484v1.485h-3.848Zm7.307 1.83a3.32 3.32 0 0 0-.894.389 4.403 4.403 0 0 0-.793.633c-.04.039-.08.084-.118.126V9.175l-1.722.253v8.522h1.722v-6.376a4.214 4.214 0 0 1 .92-.492 5.88 5.88 0 0 1 .53-.177 3.594 3.594 0 0 1 1.182-.127l.202-1.586a3.21 3.21 0 0 0-1.029.093Zm9.923 1.941c.348.658.523 1.432.523 2.32 0 .934-.189 1.744-.566 2.43a3.93 3.93 0 0 1-1.577 1.587c-.675.371-1.452.557-2.33.557-.877 0-1.585-.175-2.227-.523a3.522 3.522 0 0 1-1.476-1.528c-.343-.669-.515-1.465-.515-2.387 0-.923.183-1.722.549-2.397a3.891 3.891 0 0 1 1.535-1.569c.658-.371 1.426-.557 2.304-.557.877 0 1.64.18 2.286.54.647.36 1.145.87 1.494 1.527ZM59.6 13.58c0-.46-.05-.88-.152-1.257a2.728 2.728 0 0 0-.464-.97 2.025 2.025 0 0 0-.776-.616c-.31-.14-.678-.211-1.105-.211-.54 0-1.005.112-1.393.338-.388.225-.689.562-.903 1.012-.213.45-.32 1.018-.32 1.704 0 .687.107 1.283.32 1.755.214.473.507.827.878 1.064.371.236.81.354 1.316.354a2.62 2.62 0 0 0 1.35-.346c.394-.23.7-.582.92-1.055.22-.472.329-1.063.329-1.772Zm15.542-4.067c-.405-.236-.906-.354-1.502-.354-.461 0-.906.076-1.333.228a4.702 4.702 0 0 0-1.215.65 5.95 5.95 0 0 0-.6.506c-.196-.447-.483-.788-.868-1.013-.405-.236-.911-.354-1.519-.354-.45 0-.892.076-1.325.228a4.802 4.802 0 0 0-1.578.922v-1.15l-1.72.253v8.522h1.72v-6.418c.206-.132.417-.256.633-.357.276-.13.554-.228.836-.296a3.47 3.47 0 0 1 .81-.1c.292 0 .537.041.734.126.197.084.362.208.498.37.135.164.233.378.295.642.062.265.093.571.093.92v5.113h1.72v-5.467c0-.352-.022-.673-.064-.965.2-.13.4-.248.605-.352a3.86 3.86 0 0 1 .827-.303c.281-.068.557-.102.827-.102.27 0 .523.042.725.127.203.084.371.208.507.371.134.163.233.377.295.641.062.265.093.571.093.92v5.13h1.72v-5.484c0-.765-.1-1.39-.303-1.873-.202-.484-.506-.844-.911-1.08Zm9.492 5.19a1.98 1.98 0 0 0-.397-.633 2.54 2.54 0 0 0-.59-.464 4.511 4.511 0 0 0-.709-.33c-.18-.056-.357-.115-.531-.177a9.452 9.452 0 0 0-.524-.168c-.174-.05-.343-.104-.506-.16a3.7 3.7 0 0 1-.447-.186 3.007 3.007 0 0 1-.397-.253 1.112 1.112 0 0 1-.286-.321.813.813 0 0 1-.11-.422c0-.18.04-.335.118-.464a.96.96 0 0 1 .354-.329c.158-.09.346-.158.566-.203.22-.045.47-.067.75-.067a5.281 5.281 0 0 1 .887.076c.174.028.348.065.523.11.174.045.351.095.531.152.18.056.343.118.49.185l.118-1.367a7.958 7.958 0 0 0-.633-.236 6.165 6.165 0 0 0-.633-.169 5.05 5.05 0 0 0-.633-.093 7.616 7.616 0 0 0-.616-.025c-.506 0-.967.054-1.383.16a3.486 3.486 0 0 0-1.089.473c-.31.208-.548.472-.717.793-.169.32-.253.7-.253 1.14 0 .314.045.593.135.834.09.242.208.448.354.616.147.17.318.318.515.448.197.129.408.239.633.329a15.301 15.301 0 0 0 .784.261 31.13 31.13 0 0 1 .743.236c.118.04.233.076.346.11.157.056.304.121.439.194.135.073.25.152.346.236a.863.863 0 0 1 .295.667c0 .281-.093.503-.279.667a1.62 1.62 0 0 1-.725.346 4.31 4.31 0 0 1-.954.1c-.18 0-.38-.013-.599-.041a8.927 8.927 0 0 1-.692-.119c-.241-.05-.489-.112-.742-.185a15.064 15.064 0 0 1-.768-.245l.068 1.434c.292.102.56.183.801.245.242.062.473.116.692.16.22.046.433.074.641.085.208.011.42.017.633.017a6.57 6.57 0 0 0 1.4-.144 3.621 3.621 0 0 0 1.148-.447c.327-.202.582-.467.768-.793.186-.326.279-.714.279-1.164 0-.338-.048-.628-.144-.87Z"/></g><defs><clipPath id="a"><path fill="#fff" d="M38 5.969h46.778v12.15H38z"/></clipPath></defs></svg>
